media/icons/menu_icons/football2-symbolic.svg

<?xml version="1.0" encoding="UTF-8" standalone="no"?>
<svg
   xmlns:dc="http://purl.org/dc/elements/1.1/"
   xmlns:cc="http://creativecommons.org/ns#"
   xmlns:rdf="http://www.w3.org/1999/02/22-rdf-syntax-ns#"
   xmlns:svg="http://www.w3.org/2000/svg"
   xmlns="http://www.w3.org/2000/svg"
   id="svg20"
   version="1"
   height="48"
   width="48">
  <metadata
     id="metadata26">
    <rdf:RDF>
      <cc:Work
         rdf:about="">
        <dc:format>image/svg+xml</dc:format>
        <dc:type
           rdf:resource="http://purl.org/dc/dcmitype/StillImage" />
        <dc:title></dc:title>
      </cc:Work>
    </rdf:RDF>
  </metadata>
  <defs
     id="defs24" />
  <g
     fill="#0b9851"
     style="fill:#cccccc"
     id="g14"
     transform="matrix(.55271 0 0 .55272 4 4)">
    <g
       style="fill:#cccccc"
       id="g12">
      <path
         style="fill:#cccccc"
         id="path10"
         d="m22.57 2.648c-4.489 1.82-8.517 4.496-11.971 7.949-3.455 3.454-6.128 7.483-7.949 11.971-1.758 4.336-2.65 8.918-2.65 13.618 0 4.699 0.892 9.281 2.65 13.615 1.821 4.489 4.495 8.518 7.949 11.971 3.454 3.455 7.481 6.129 11.971 7.949 4.336 1.76 8.917 2.649 13.617 2.649s9.28-0.892 13.616-2.649c4.488-1.82 8.518-4.494 11.971-7.949 3.455-3.453 6.129-7.48 7.949-11.971 1.758-4.334 2.648-8.916 2.648-13.615 0-4.7-0.891-9.282-2.648-13.618-1.82-4.488-4.496-8.518-7.949-11.971s-7.479-6.129-11.971-7.949c-4.336-1.757-8.916-2.648-13.616-2.648s-9.281 0.891-13.617 2.648zm-13.526 48.771c-1.743-1.094-3.349-2.354-4.771-3.838-2.172-6.112-2.54-12.729-1.101-19.01 0.677-1.335 1.447-2.617 2.318-3.845 0.269-0.379 0.518-0.774 0.806-1.142l8.166 4.832v0.205c-0.021 4.392 0.425 8.752 1.313 13.049 0.003 0.02 0.006 0.031 0.01 0.049l-6.333 9.93c-0.138-0.07-0.275-0.146-0.408-0.23zm24.28 16.787c1.409 0.719 2.858 1.326 4.347 1.82-6.325 0.275-12.713-1.207-18.36-4.447l13.689 2.439c0.105 0.067 0.212 0.131 0.324 0.188zm-0.05-2.471-16.154-2.879c-1.89-2.295-3.59-4.723-5.051-7.318-0.372-0.66-0.787-1.301-1.102-1.99l6.327-9.92c0.14 0.035 0.296 0.072 0.473 0.119 3.958 1.059 7.986 1.812 12.042 2.402 0.237 0.033 0.435 0.062 0.604 0.08l7.584 13.113c-1.316 1.85-2.647 3.69-4.007 5.51-0.226 0.303-0.466 0.594-0.716 0.883zm26.876-5.586c-1.286 1.287-2.651 2.447-4.08 3.481-0.237-1.894-0.646-3.75-1.223-5.563l8.092-15.096c2.229-1.015 4.379-2.166 6.375-3.593 0.261-0.185 0.478-0.392 0.646-0.618-0.586 7.801-3.856 15.436-9.81 21.389zm-0.359-19.578c0.301 0.574 0.598 1.154 0.896 1.742l-7.816 14.58c-0.045 0.01-0.088 0.02-0.133 0.026-4.225 0.789-8.484 1.209-12.779 1.229l-7.8-13.487c1.214-2.254 2.417-4.517 3.61-6.781 0.81-1.536 1.606-3.082 2.401-4.627l16.143-1.658c1.977 2.9 3.85 5.862 5.478 8.976zm-3.275-17.294c-0.766 2.023-1.586 4.025-2.401 6.031l-15.726 1.615c-0.188-0.248-0.383-0.492-0.588-0.725-1.857-2.103-3.726-4.193-5.592-6.289 0.017-0.021 0.034-0.037 0.051-0.056-0.753-0.752-1.508-1.504-2.261-2.258l4.378-13.181c0.302-0.08 0.606-0.147 0.913-0.18 2.38-0.242 4.763-0.516 7.149-0.654 1.461-0.082 2.93-0.129 4.416-0.024l10.832 12.209c-0.373 1.178-0.737 2.359-1.171 3.512zm3.634-11.056c2.988 2.99 5.302 6.402 6.938 10.047-2.024-1.393-4.188-2.539-6.463-3.473-0.354-0.146-0.717-0.275-1.086-0.402l-10.662-12.017c0.074-0.519 0.113-1.039 0.129-1.563 4.056 1.651 7.858 4.123 11.144 7.408zm-34.816-8.039c0.042 0.031 0.062 0.057 0.086 0.064 2.437 0.842 4.654 2.082 6.744 3.553l-4.09 12.317c-0.021 0.006-0.041 0.012-0.061 0.021-0.837 0.346-1.69 0.656-2.514 1.031-3.395 1.543-6.705 3.252-9.823 5.301l-8.071-4.775c0.012-0.252 0.055-0.508 0.141-0.736 0.542-1.444 1.075-2.896 1.688-4.311 0.472-1.09 1.01-2.143 1.597-3.172 0.384-0.424 0.782-0.844 1.192-1.254 3.833-3.832 8.363-6.553 13.186-8.162-0.025 0.039-0.051 0.08-0.075 0.123z" />
    </g>
  </g>
</svg>

<?xml version="1.0" encoding="UTF-8" standalone="no"?>
<svg
   xmlns:dc="http://purl.org/dc/elements/1.1/"
   xmlns:cc="http://creativecommons.org/ns#"
   xmlns:rdf="http://www.w3.org/1999/02/22-rdf-syntax-ns#"
   xmlns:svg="http://www.w3.org/2000/svg"
   xmlns="http://www.w3.org/2000/svg"
   xmlns:sodipodi="http://sodipodi.sourceforge.net/DTD/sodipodi-0.dtd"
   xmlns:inkscape="http://www.inkscape.org/namespaces/inkscape"
   inkscape:version="1.0 (4035a4fb49, 2020-05-01)"
   sodipodi:docname="football2-symbolic.svg"
   width="64"
   height="64"
   version="1.1"
   id="svg24">
  <sodipodi:namedview
     inkscape:document-rotation="0"
     inkscape:current-layer="svg24"
     inkscape:window-maximized="1"
     inkscape:window-y="40"
     inkscape:window-x="0"
     inkscape:cy="32"
     inkscape:cx="-17.084746"
     inkscape:zoom="3.6875"
     showgrid="false"
     id="namedview949"
     inkscape:window-height="898"
     inkscape:window-width="1920"
     inkscape:pageshadow="2"
     inkscape:pageopacity="0"
     guidetolerance="10"
     gridtolerance="10"
     objecttolerance="10"
     borderopacity="1"
     bordercolor="#666666"
     pagecolor="#ffffff" />
  <metadata
     id="metadata30">
    <rdf:RDF>
      <cc:Work
         rdf:about="">
        <dc:format>image/svg+xml</dc:format>
        <dc:type
           rdf:resource="http://purl.org/dc/dcmitype/StillImage" />
        <dc:title />
      </cc:Work>
    </rdf:RDF>
  </metadata>
  <defs
     id="defs28" />
  <g
     transform="matrix(0.78760493,0,0,0.78761918,3.5001218,3.5)"
     id="g14"
     style="fill:#cccccc">
    <g
       id="g12"
       style="fill:#cccccc">
      <path
         d="M 22.57,2.648 C 18.081,4.468 14.053,7.144 10.599,10.597 7.144,14.051 4.471,18.08 2.65,22.568 0.892,26.904 0,31.486 0,36.186 c 0,4.699 0.892,9.281 2.65,13.615 1.821,4.489 4.495,8.518 7.949,11.971 3.454,3.455 7.481,6.129 11.971,7.949 4.336,1.76 8.917,2.649 13.617,2.649 4.7,0 9.28,-0.892 13.616,-2.649 4.488,-1.82 8.518,-4.494 11.971,-7.949 3.455,-3.453 6.129,-7.48 7.949,-11.971 1.758,-4.334 2.648,-8.916 2.648,-13.615 0,-4.7 -0.891,-9.282 -2.648,-13.618 C 67.903,18.08 65.227,14.05 61.774,10.597 58.321,7.144 54.295,4.468 49.803,2.648 45.467,0.891 40.887,0 36.187,0 31.487,0 26.906,0.891 22.57,2.648 Z M 9.044,51.419 C 7.301,50.325 5.695,49.065 4.273,47.581 2.101,41.469 1.733,34.852 3.172,28.571 3.849,27.236 4.619,25.954 5.49,24.726 5.759,24.347 6.008,23.952 6.296,23.584 l 8.166,4.832 v 0.205 c -0.021,4.392 0.425,8.752 1.313,13.049 0.003,0.02 0.006,0.031 0.01,0.049 l -6.333,9.93 C 9.314,51.579 9.177,51.503 9.044,51.419 Z m 24.28,16.787 c 1.409,0.719 2.858,1.326 4.347,1.82 -6.325,0.275 -12.713,-1.207 -18.36,-4.447 L 33,68.018 c 0.105,0.067 0.212,0.131 0.324,0.188 z M 33.274,65.735 17.12,62.856 c -1.89,-2.295 -3.59,-4.723 -5.051,-7.318 -0.372,-0.66 -0.787,-1.301 -1.102,-1.99 l 6.327,-9.92 c 0.14,0.035 0.296,0.072 0.473,0.119 3.958,1.059 7.986,1.812 12.042,2.402 0.237,0.033 0.435,0.062 0.604,0.08 l 7.584,13.113 c -1.316,1.85 -2.647,3.69 -4.007,5.51 -0.226,0.303 -0.466,0.594 -0.716,0.883 z M 60.15,60.149 c -1.286,1.287 -2.651,2.447 -4.08,3.481 -0.237,-1.894 -0.646,-3.75 -1.223,-5.563 l 8.092,-15.096 c 2.229,-1.015 4.379,-2.166 6.375,-3.593 0.261,-0.185 0.478,-0.392 0.646,-0.618 -0.586,7.801 -3.856,15.436 -9.81,21.389 z M 59.791,40.571 c 0.301,0.574 0.598,1.154 0.896,1.742 l -7.816,14.58 c -0.045,0.01 -0.088,0.02 -0.133,0.026 -4.225,0.789 -8.484,1.209 -12.779,1.229 l -7.8,-13.487 c 1.214,-2.254 2.417,-4.517 3.61,-6.781 0.81,-1.536 1.606,-3.082 2.401,-4.627 l 16.143,-1.658 c 1.977,2.9 3.85,5.862 5.478,8.976 z M 56.516,23.277 C 55.75,25.3 54.93,27.302 54.115,29.308 l -15.726,1.615 c -0.188,-0.248 -0.383,-0.492 -0.588,-0.725 -1.857,-2.103 -3.726,-4.193 -5.592,-6.289 0.017,-0.021 0.034,-0.037 0.051,-0.056 -0.753,-0.752 -1.508,-1.504 -2.261,-2.258 L 34.377,8.414 C 34.679,8.334 34.983,8.267 35.29,8.234 37.67,7.992 40.053,7.718 42.439,7.58 43.9,7.498 45.369,7.451 46.855,7.556 l 10.832,12.209 c -0.373,1.178 -0.737,2.359 -1.171,3.512 z M 60.15,12.221 c 2.988,2.99 5.302,6.402 6.938,10.047 C 65.064,20.875 62.9,19.729 60.625,18.795 60.271,18.649 59.908,18.52 59.539,18.393 L 48.877,6.376 c 0.074,-0.519 0.113,-1.039 0.129,-1.563 4.056,1.651 7.858,4.123 11.144,7.408 z M 25.334,4.182 c 0.042,0.031 0.062,0.057 0.086,0.064 2.437,0.842 4.654,2.082 6.744,3.553 l -4.09,12.317 c -0.021,0.006 -0.041,0.012 -0.061,0.021 -0.837,0.346 -1.69,0.656 -2.514,1.031 -3.395,1.543 -6.705,3.252 -9.823,5.301 L 7.605,21.694 c 0.012,-0.252 0.055,-0.508 0.141,-0.736 0.542,-1.444 1.075,-2.896 1.688,-4.311 0.472,-1.09 1.01,-2.143 1.597,-3.172 0.384,-0.424 0.782,-0.844 1.192,-1.254 3.833,-3.832 8.363,-6.553 13.186,-8.162 -0.025,0.039 -0.051,0.08 -0.075,0.123 z"
         id="path10"
         style="fill:#cccccc" />
    </g>
  </g>
</svg>
